X:1
T: The Laird and his Lass
C:
R:Strathspey
Q: 128
K:F
M:4/4
L:1/16
|:A2G2|F6 G2 A4 C4|D4 C4 C4 C4|A6 B2 c4 A4|d8 c8|
d6 c2 A4 c4|F2 D6 C4 d4|c6 d2 c4 C4|D8 F8|
d6 e2 f4 d4|e4 ^c4 A4 A2A2|f6 e2 d2e2 f2g2|a8 a4 g4|
f6 e2 d4 c4|d2 c6 A4 c2c2|1d6 c2 A4 F4|G8 c4:|2d6 c2 d4 f4|f8 f4||
